public/img/Tools/TEAM.svg

<svg width="101" height="115" viewBox="0 0 101 115" xmlns="http://www.w3.org/2000/svg" xmlns:xlink="http://www.w3.org/1999/xlink"><title>TEAM</title><defs><path d="M11.362 2.389C9.624 3.606 8.445 5.483 8.045 7.663l-.219 1.292a8.266 8.266 0 0 0 1.193 5.801l2.354 3.763-3.534 1.056c-2.571.754-4.696 2.496-5.982 4.909l-.048.086-.054.057-1.04 2.836a3.892 3.892 0 0 0 .464 3.422 3.765 3.765 0 0 0 3.072 1.554h23.984c1.216 0 2.351-.546 3.043-1.545.712-1.009.889-2.248.473-3.398l-1.01-2.833-.037-.111-.043-.102c-1.226-2.319-3.404-4.115-5.967-4.925l-3.532-1.055 2.214-3.53c1.173-1.81 1.583-4.137 1.101-6.218l-.346-1.486c-.378-1.784-1.471-3.498-2.978-4.691C19.674 1.447 17.895.842 16.146.842a8.04 8.04 0 0 0-4.784 1.547z" id="a"/><path d="M12.233 2.008c-1.957 1.371-3.254 3.475-3.695 5.873l-.219 1.297a9.143 9.143 0 0 0 1.321 6.437l1.713 2.741-2.374.71c-2.839.832-5.164 2.79-6.534 5.36l-.147.17-.025.148-1.027 2.814a4.874 4.874 0 0 0 .587 4.298c.881 1.225 2.301 1.999 3.817 1.999h13.433l.981-2.707.054-.343.254-.297c1.532-2.814 4.035-4.85 7.061-5.737l1.159-.347-1.043-1.669a10.062 10.062 0 0 1-1.457-3.818l-2.11-.63 1.565-2.497c.309-.475.567-.985.779-1.516.123-.647.299-1.27.527-1.865a8.99 8.99 0 0 0-.081-3.544l-.342-1.469c-.442-2.08-1.69-3.939-3.33-5.236C21.485.98 19.527.294 17.545.294c-1.933 0-3.77.588-5.312 1.714z" id="c"/><path d="M5.685 2.008C3.727 3.379 2.43 5.483 1.99 7.881l-.22 1.297a9.143 9.143 0 0 0 1.322 6.437l1.712 2.741-2.247.672a10.095 10.095 0 0 1-1.475 3.934l-.887 1.413 1.162.348c3.073.97 5.66 3.114 7.111 5.884l.018.034.103.241.063.202.983 2.771h13.452a4.608 4.608 0 0 0 3.793-1.999 4.723 4.723 0 0 0 .587-4.298l-1.003-2.814-.05-.148-.073-.17c-1.346-2.57-3.744-4.528-6.534-5.41l-2.374-.709L19 15.81c1.297-2.006 1.76-4.601 1.222-6.925l-.342-1.469c-.44-2.08-1.688-3.939-3.328-5.237C14.937.98 12.979.294 10.996.294a8.937 8.937 0 0 0-5.311 1.714z" id="e"/></defs><g fill="none" fill-rule="evenodd"><path fill="#00A9C7" d="M100.365 85.72l-50.001 28.333-50-28.333V29.053l50-28.333 50 28.333z"/><g transform="translate(34 44.52)"><mask id="b" fill="#fff"><use xlink:href="#a"/></mask><path fill="#FFF" mask="url(#b)" d="M-3.478 36.428h39.44V-3.148h-39.44z"/></g><g transform="translate(14 37.52)"><mask id="d" fill="#fff"><use xlink:href="#c"/></mask><path fill="#FFF" mask="url(#d)" d="M-3 37.844h35.581V-3.694H-3z"/></g><g transform="translate(58 37.52)"><mask id="f" fill="#fff"><use xlink:href="#e"/></mask><path fill="#FFF" mask="url(#f)" d="M-3.794 37.844h35.523V-3.695H-3.794z"/></g></g></svg>

<?xml version="1.0" encoding="UTF-8"?>
<svg width="101px" height="115px" viewBox="0 0 101 115" version="1.1" xmlns="http://www.w3.org/2000/svg" xmlns:xlink="http://www.w3.org/1999/xlink">
    <!-- Generator: Sketch 42 (36781) - http://www.bohemiancoding.com/sketch -->
    <title>TEAM</title>
    <desc>Created with Sketch.</desc>
    <defs>
        <path d="M11.362,2.389 C9.624,3.606 8.445,5.483 8.045,7.663 L7.826,8.955 C7.496,10.979 7.918,13.036 9.019,14.756 L11.373,18.519 L7.839,19.575 C5.268,20.329 3.143,22.071 1.857,24.484 L1.809,24.57 L1.755,24.627 L0.715,27.463 C0.323,28.599 0.505,29.904 1.179,30.885 C1.901,31.888 3.051,32.439 4.251,32.439 L28.235,32.439 C29.451,32.439 30.586,31.893 31.278,30.894 C31.99,29.885 32.167,28.646 31.751,27.496 L30.741,24.663 L30.704,24.552 L30.661,24.45 C29.435,22.131 27.257,20.335 24.694,19.525 L21.162,18.47 L23.376,14.94 C24.549,13.13 24.959,10.803 24.477,8.722 L24.131,7.236 C23.753,5.452 22.66,3.738 21.153,2.545 C19.674,1.447 17.895,0.842 16.146,0.842 C14.402,0.842 12.754,1.373 11.362,2.389 Z" id="path-1"></path>
        <path d="M12.233,2.008 C10.276,3.379 8.979,5.483 8.538,7.881 L8.319,9.178 C7.951,11.43 8.416,13.707 9.64,15.615 L11.353,18.356 L8.979,19.066 C6.14,19.898 3.815,21.856 2.445,24.426 L2.298,24.596 L2.273,24.744 L1.246,27.558 C0.756,28.977 0.976,30.609 1.833,31.856 C2.714,33.081 4.134,33.855 5.65,33.855 L19.083,33.855 L20.064,31.148 L20.118,30.805 L20.372,30.508 C21.904,27.694 24.407,25.658 27.433,24.771 L28.592,24.424 L27.549,22.755 C26.802,21.589 26.312,20.29 26.092,18.937 L23.982,18.307 L25.547,15.81 C25.856,15.335 26.114,14.825 26.326,14.294 C26.449,13.647 26.625,13.024 26.853,12.429 C27.057,11.251 27.038,10.034 26.772,8.885 L26.43,7.416 C25.988,5.336 24.74,3.477 23.1,2.18 C21.485,0.98 19.527,0.294 17.545,0.294 C15.612,0.294 13.775,0.882 12.233,2.008 Z" id="path-3"></path>
        <path d="M5.685,2.008 C3.727,3.379 2.43,5.483 1.99,7.881 L1.77,9.178 C1.403,11.43 1.867,13.707 3.092,15.615 L4.804,18.356 L2.557,19.028 C2.342,20.425 1.845,21.782 1.082,22.962 L0.195,24.375 L1.357,24.723 C4.43,25.693 7.017,27.837 8.468,30.607 L8.486,30.641 L8.589,30.882 L8.652,31.084 L9.635,33.855 L23.087,33.855 C24.579,33.855 25.998,33.129 26.88,31.856 C27.761,30.609 27.982,28.978 27.467,27.558 L26.464,24.744 L26.414,24.596 L26.341,24.426 C24.995,21.856 22.597,19.898 19.807,19.016 L17.433,18.307 L19,15.81 C20.297,13.804 20.76,11.209 20.222,8.885 L19.88,7.416 C19.44,5.336 18.192,3.477 16.552,2.179 C14.937,0.98 12.979,0.294 10.996,0.294 C9.063,0.294 7.228,0.882 5.685,2.008 Z" id="path-5"></path>
    </defs>
    <g id="Page-1" stroke="none" stroke-width="1" fill="none" fill-rule="evenodd">
        <g id="Landing-Copy-3" transform="translate(-1101.000000, -2304.000000)">
            <g id="TEAM" transform="translate(1101.000000, 2304.000000)">
                <polygon id="Fill-1" fill="#00A9C7" points="100.3648 85.7204 50.3638 114.0534 0.3648 85.7204 0.3648 29.0534 50.3638 0.7204 100.3648 29.0534"></polygon>
                <g id="Group-4" transform="translate(34.000000, 44.520000)">
                    <mask id="mask-2" fill="white">
                        <use xlink:href="#path-1"></use>
                    </mask>
                    <g id="Clip-3"></g>
                    <polygon id="Fill-2" fill="#FFFFFF" mask="url(#mask-2)" points="-3.478 36.428 35.962 36.428 35.962 -3.148 -3.478 -3.148"></polygon>
                </g>
                <g id="Group-7" transform="translate(14.000000, 37.520000)">
                    <mask id="mask-4" fill="white">
                        <use xlink:href="#path-3"></use>
                    </mask>
                    <g id="Clip-6"></g>
                    <polygon id="Fill-5" fill="#FFFFFF" mask="url(#mask-4)" points="-3 37.844 32.581 37.844 32.581 -3.694 -3 -3.694"></polygon>
                </g>
                <g id="Group-10" transform="translate(58.000000, 37.520000)">
                    <mask id="mask-6" fill="white">
                        <use xlink:href="#path-5"></use>
                    </mask>
                    <g id="Clip-9"></g>
                    <polygon id="Fill-8" fill="#FFFFFF" mask="url(#mask-6)" points="-3.794 37.844 31.729 37.844 31.729 -3.695 -3.794 -3.695"></polygon>
                </g>
            </g>
        </g>
    </g>
</svg>
